assets/icons/typescript-icon-svgrepo-com.svg

<svg height="800" preserveAspectRatio="xMidYMid" viewBox="0 0 256 256" width="800" xmlns="http://www.w3.org/2000/svg"><path d="m0 128v-128h128 128v128 128h-128-128z" fill="#007acc" transform="matrix(1 0 0 -1 0 256)"/><g fill="#fff"><path d="m146.658132 223.436863.081269-10.483809h-16.660317-16.660317v-47.339683-47.339682h-11.784127-11.7841274v47.339682 47.339683h-16.6603175-16.6603175v10.280635c0 5.688888.1219048 10.443174.2844445 10.565079.1219048.16254 20.3987301.243809 44.9828569.203175l44.739048-.121905z" transform="matrix(-1 -0 0 -1 203.26928 352.285986)"/><path d="m206.566631 234.272145c6.501588-1.625397 11.459048-4.510477 16.010159-9.224127 2.356826-2.519365 5.851429-7.111111 6.135873-8.208254.08127-.32508-11.052698-7.801905-17.798095-11.987302-.24381-.16254-1.219048.893968-2.316191 2.519365-3.291428 4.794921-6.745396 6.867302-12.027936 7.233016-7.76127.528254-12.759365-3.535238-12.71873-10.32127 0-1.991111.284444-3.169524 1.097143-4.79492 1.706666-3.535239 4.87619-5.648254 14.831746-9.955556 18.326349-7.883175 26.168889-13.084444 31.045079-20.48 5.445079-8.248889 6.664127-21.414603 2.966349-31.207619-4.063492-10.646349-14.140952-17.879365-28.322539-20.276825-4.388572-.772064-14.791112-.650159-19.504762.203174-10.280635 1.828572-20.033016 6.907937-26.046984 13.572064-2.356826 2.600635-6.948572 9.386666-6.664127 9.874285.121904.16254 1.178412.812699 2.356825 1.503492 1.137778.650159 5.445079 3.128889 9.508571 5.485715l7.354921 4.266666 1.544127-2.275555c2.153651-3.291429 6.867302-7.801905 9.711746-9.305397 8.167619-4.307302 19.382857-3.697778 24.909206 1.259683 2.356826 2.15365 3.332064 4.388571 3.332064 7.68 0 2.966349-.365714 4.266666-1.909841 6.501587-1.991112 2.844444-6.054604 5.241905-17.594921 10.24-13.206349 5.688889-18.895238 9.224127-24.096508 14.831746-3.006984 3.250794-5.851429 8.452063-7.029841 12.8-.975238 3.616508-1.219048 12.678095-.446984 16.335238 2.722539 12.759365 12.353015 21.658413 26.250158 24.299683 4.510477.853333 14.994286.528253 19.423492-.568889z" transform="matrix(1 0 0 -1 0 352.38048)"/></g></svg>

<?xml version="1.0" encoding="UTF-8"?>
<!-- Uploaded to: SVG Repo, www.svgrepo.com, Generator: SVG Repo Mixer Tools -->
<svg width="800px" height="800px" viewBox="0 0 256 256" version="1.1" xmlns="http://www.w3.org/2000/svg" xmlns:xlink="http://www.w3.org/1999/xlink" preserveAspectRatio="xMidYMid">
	<g>
		<polygon fill="#007ACC" transform="translate(128.000000, 128.000000) scale(1, -1) translate(-128.000000, -128.000000) " points="0 128 0 0 128 0 256 0 256 128 256 256 128 256 0 256">
</polygon>
		<path d="M146.658132,223.436863 L146.739401,212.953054 L130.079084,212.953054 L113.418767,212.953054 L113.418767,165.613371 L113.418767,118.273689 L101.63464,118.273689 L89.8505126,118.273689 L89.8505126,165.613371 L89.8505126,212.953054 L73.1901951,212.953054 L56.5298776,212.953054 L56.5298776,223.233689 C56.5298776,228.922577 56.6517824,233.676863 56.8143221,233.798768 C56.9362269,233.961308 77.2130522,234.042577 101.797179,234.001943 L146.536227,233.880038 L146.658132,223.436863 Z" fill="#FFFFFF" transform="translate(101.634640, 176.142993) rotate(-180.000000) translate(-101.634640, -176.142993) ">
</path>
		<path d="M206.566631,234.272145 C213.068219,232.646748 218.025679,229.761668 222.57679,225.048018 C224.933616,222.528653 228.428219,217.936907 228.712663,216.839764 C228.793933,216.514684 217.659965,209.037859 210.914568,204.852462 C210.670758,204.689922 209.69552,205.74643 208.598377,207.371827 C205.306949,212.166748 201.852981,214.239129 196.570441,214.604843 C188.809171,215.133097 183.811076,211.069605 183.851711,204.283573 C183.851711,202.292462 184.136155,201.114049 184.948854,199.488653 C186.65552,195.953414 189.825044,193.840399 199.7806,189.533097 C218.106949,181.649922 225.949489,176.448653 230.825679,169.053097 C236.270758,160.804208 237.489806,147.638494 233.792028,137.845478 C229.728536,127.199129 219.651076,119.966113 205.469489,117.568653 C201.080917,116.796589 190.678377,116.918494 185.964727,117.771827 C175.684092,119.600399 165.931711,124.679764 159.917743,131.343891 C157.560917,133.944526 152.969171,140.730557 153.253616,141.218176 C153.37552,141.380716 154.432028,142.030875 155.610441,142.721668 C156.748219,143.371827 161.05552,145.850557 165.119012,148.207383 L172.473933,152.474049 L174.01806,150.198494 C176.171711,146.907065 180.885362,142.396589 183.729806,140.893097 C191.897425,136.585795 203.112663,137.195319 208.639012,142.15278 C210.995838,144.30643 211.971076,146.541351 211.971076,149.83278 C211.971076,152.799129 211.605362,154.099446 210.061235,156.334367 C208.070123,159.178811 204.006631,161.576272 192.466314,166.574367 C179.259965,172.263256 173.571076,175.798494 168.369806,181.406113 C165.362822,184.656907 162.518377,189.858176 161.339965,194.206113 C160.364727,197.822621 160.120917,206.884208 160.892981,210.541351 C163.61552,223.300716 173.245996,232.199764 187.143139,234.841034 C191.653616,235.694367 202.137425,235.369287 206.566631,234.272145 Z" fill="#FFFFFF" transform="translate(194.578507, 176.190240) scale(1, -1) translate(-194.578507, -176.190240) ">
</path>
	</g>
</svg>
